static/img/kroki/82879292b87425a8fc3258880be555c2.svg

<?xml version="1.0" encoding="us-ascii" standalone="no"?><svg xmlns="http://www.w3.org/2000/svg" xmlns:xlink="http://www.w3.org/1999/xlink" contentStyleType="text/css" height="374px" preserveAspectRatio="none" style="width:200px;height:374px;" version="1.1" viewBox="0 0 200 374" width="200px" zoomAndPan="magnify"><defs/><g><!--class gcp_resource--><g id="elem_gcp_resource"><rect codeLine="23" fill="#3D176E" height="39.7891" id="gcp_resource" rx="2.5" ry="2.5" style="stroke:#000D19;stroke-width:0.5;" width="150" x="25" y="167.79"/><ellipse cx="40" cy="187.6845" fill="#ADD1B2" rx="11" ry="11" style="stroke:#181818;stroke-width:1.0;"/><path d="M42.9688,193.3252 Q42.3906,193.622 41.75,193.7627 Q41.1094,193.9189 40.4063,193.9189 Q37.9063,193.9189 36.5781,192.2783 Q35.2656,190.622 35.2656,187.497 Q35.2656,184.372 36.5781,182.7158 Q37.9063,181.0595 40.4063,181.0595 Q41.1094,181.0595 41.75,181.2158 Q42.4063,181.372 42.9688,181.6689 L42.9688,184.3877 Q42.3438,183.8095 41.75,183.5439 Q41.1563,183.2627 40.5313,183.2627 Q39.1875,183.2627 38.5,184.3408 Q37.8125,185.4033 37.8125,187.497 Q37.8125,189.5908 38.5,190.6689 Q39.1875,191.7314 40.5313,191.7314 Q41.1563,191.7314 41.75,191.4658 Q42.3438,191.1845 42.9688,190.6064 L42.9688,193.3252 Z " fill="#000000"/><text fill="#D9B8FF" font-family="Helvetica" font-size="17" lengthAdjust="spacing" textLength="108" x="59" y="193.5698">gcp_resource</text></g><!--class gcp_sql_database--><g id="elem_gcp_sql_database"><rect codeLine="26" fill="#3D176E" height="39.7891" id="gcp_sql_database" rx="2.5" ry="2.5" style="stroke:#000D19;stroke-width:0.5;" width="186" x="7" y="328.58"/><ellipse cx="22" cy="348.4745" fill="#ADD1B2" rx="11" ry="11" style="stroke:#181818;stroke-width:1.0;"/><path d="M24.9688,354.1152 Q24.3906,354.412 23.75,354.5527 Q23.1094,354.7089 22.4063,354.7089 Q19.9063,354.7089 18.5781,353.0683 Q17.2656,351.412 17.2656,348.287 Q17.2656,345.162 18.5781,343.5058 Q19.9063,341.8495 22.4063,341.8495 Q23.1094,341.8495 23.75,342.0058 Q24.4063,342.162 24.9688,342.4589 L24.9688,345.1777 Q24.3438,344.5995 23.75,344.3339 Q23.1563,344.0527 22.5313,344.0527 Q21.1875,344.0527 20.5,345.1308 Q19.8125,346.1933 19.8125,348.287 Q19.8125,350.3808 20.5,351.4589 Q21.1875,352.5214 22.5313,352.5214 Q23.1563,352.5214 23.75,352.2558 Q24.3438,351.9745 24.9688,351.3964 L24.9688,354.1152 Z " fill="#000000"/><text fill="#D9B8FF" font-family="Helvetica" font-size="17" lengthAdjust="spacing" textLength="144" x="41" y="354.3598">gcp_sql_database</text></g><!--class resource--><g id="elem_resource"><rect codeLine="29" fill="#3D176E" height="39.7891" id="resource" rx="2.5" ry="2.5" style="stroke:#000D19;stroke-width:0.5;" width="113" x="43.5" y="7"/><ellipse cx="58.5" cy="26.8945" fill="#ADD1B2" rx="11" ry="11" style="stroke:#181818;stroke-width:1.0;"/><path d="M61.4688,32.5352 Q60.8906,32.832 60.25,32.9727 Q59.6094,33.1289 58.9063,33.1289 Q56.4063,33.1289 55.0781,31.4883 Q53.7656,29.832 53.7656,26.707 Q53.7656,23.582 55.0781,21.9258 Q56.4063,20.2695 58.9063,20.2695 Q59.6094,20.2695 60.25,20.4258 Q60.9063,20.582 61.4688,20.8789 L61.4688,23.5977 Q60.8438,23.0195 60.25,22.7539 Q59.6563,22.4727 59.0313,22.4727 Q57.6875,22.4727 57,23.5508 Q56.3125,24.6133 56.3125,26.707 Q56.3125,28.8008 57,29.8789 Q57.6875,30.9414 59.0313,30.9414 Q59.6563,30.9414 60.25,30.6758 Q60.8438,30.3945 61.4688,29.8164 L61.4688,32.5352 Z " fill="#000000"/><text fill="#D9B8FF" font-family="Helvetica" font-size="17" lengthAdjust="spacing" textLength="71" x="77.5" y="32.7798">resource</text></g><!--reverse link resource to gcp_resource--><g id="link_resource_gcp_resource"><path codeLine="32" d="M100,65.05 C100,95.57 100,136.9 100,167.46 " fill="none" id="resource-backto-gcp_resource" style="stroke:#FFAF37;stroke-width:2.0;"/><polygon fill="none" points="100,47.05,94,65.05,106,65.05,100,47.05" style="stroke:#FFAF37;stroke-width:2.0;"/></g><!--reverse link gcp_resource to gcp_sql_database--><g id="link_gcp_resource_gcp_sql_database"><path codeLine="33" d="M100,225.84 C100,256.36 100,297.69 100,328.25 " fill="none" id="gcp_resource-backto-gcp_sql_database" style="stroke:#FFAF37;stroke-width:2.0;"/><polygon fill="none" points="100,207.84,94,225.84,106,225.84,100,207.84" style="stroke:#FFAF37;stroke-width:2.0;"/></g><!--SRC=[XP1FJuD04CNlV8fDUYO16wKaNYg9qKjZhFTcs9s53R2BiujD_VFT5Qjr0TiUPzulRzwRKWbasBHknnfiSYGRs4hf5WWQjYGosypKXjXCIf3pP2pU6ktE0YjeaDrX_O9ESHWJJwNYbKPhsOKdtG2l2ZAT5djxHw3jbuJQULHMWxLBvqZbdKClZ4ZpXPHZScmwcuiukS89PaWW_I1H58au7IDdJvtiVI3MwXLPx3zjPHnEOavEV5CdK_Q45t9Iz5S_cl41X52wO9VUxd6VYJJIOBykGPXjJqkehN_6EYGqRjTYDcc5wKB8v5_u_XWSyFvrhE3jXj2QZZYojo3uyFRskTu8S9237MX3_Z1TluTXE30C1kv_kcySV080]--></g></svg>

<svg xmlns="http://www.w3.org/2000/svg" width="200" height="374" viewBox="0 0 200 374"><rect width="150" height="39.789" x="25" y="167.79" fill="#3D176E" rx="2.5" ry="2.5" style="stroke:#000d19;stroke-width:.5"/><circle cx="40" cy="187.685" r="11" fill="#ADD1B2" style="stroke:#181818;stroke-width:1"/><path d="M42.969 193.325q-.578.297-1.219.438-.64.156-1.344.156-2.5 0-3.828-1.64-1.312-1.657-1.312-4.782t1.312-4.781q1.328-1.656 3.828-1.656.703 0 1.344.156.656.156 1.219.453v2.719q-.625-.578-1.219-.844-.594-.281-1.219-.281-1.343 0-2.031 1.078-.687 1.062-.687 3.156t.687 3.172q.688 1.062 2.031 1.062.625 0 1.219-.265.594-.281 1.219-.86z"/><text x="59" y="193.57" fill="#D9B8FF" font-family="Helvetica" font-size="17" textLength="108">gcp_resource</text><rect width="186" height="39.789" x="7" y="328.58" fill="#3D176E" rx="2.5" ry="2.5" style="stroke:#000d19;stroke-width:.5"/><circle cx="22" cy="348.474" r="11" fill="#ADD1B2" style="stroke:#181818;stroke-width:1"/><path d="M24.969 354.115q-.578.297-1.219.438-.64.156-1.344.156-2.5 0-3.828-1.64-1.312-1.657-1.312-4.782t1.312-4.781q1.328-1.656 3.828-1.656.703 0 1.344.156.656.156 1.219.453v2.719q-.625-.579-1.219-.844-.594-.281-1.219-.281-1.343 0-2.031 1.078-.687 1.062-.687 3.156t.687 3.172q.688 1.062 2.031 1.062.625 0 1.219-.265.594-.281 1.219-.86z"/><text x="41" y="354.36" fill="#D9B8FF" font-family="Helvetica" font-size="17" textLength="144">gcp_sql_database</text><rect width="113" height="39.789" x="43.5" y="7" fill="#3D176E" rx="2.5" ry="2.5" style="stroke:#000d19;stroke-width:.5"/><circle cx="58.5" cy="26.895" r="11" fill="#ADD1B2" style="stroke:#181818;stroke-width:1"/><path d="M61.469 32.535q-.578.297-1.219.438-.64.156-1.344.156-2.5 0-3.828-1.64-1.312-1.657-1.312-4.782t1.312-4.781q1.328-1.656 3.828-1.656.703 0 1.344.156.656.156 1.219.453v2.719q-.625-.578-1.219-.844-.594-.281-1.219-.281-1.343 0-2.031 1.078-.687 1.062-.687 3.156T57 29.879q.688 1.062 2.031 1.062.625 0 1.219-.265.594-.281 1.219-.86z"/><text x="77.5" y="32.78" fill="#D9B8FF" font-family="Helvetica" font-size="17" textLength="71">resource</text><path fill="none" d="M100 65.05v102.41m0-120.41-6 18h12zm0 178.79v102.41m0-120.41-6 18h12z" style="stroke:#ffaf37;stroke-width:2"/></svg>
